X:1
T:Sommation irrespectueuse
T:1880, Emmanuel Chabrier (paroles : Victor Hugo, Les Chansons des rues et des bois, 1865) 
T:Public Domain
T:Public Domain
T:Public Domain
T:Public Domain
C:E. Chabrier
Z:V. Hugo
Z:Public Domain
L:1/8
M:3/4
K:A
V:1 treble nm="Piano" snm="Pno."
V:1
 z6 | z6 | z6 | z6 |"^CHANT" F2 G F E F | (GF) E G F2 |!<(! A2 B B c2!<)! | F2 G F E F | %8
w: ||||Rire é- tant si jo|li- * e, C'est mal|Ô tra- hi- son!|D'ins- pi- rer la fo-|
 (GF) E G F2 |!<(! A2 B B c2!<)! |"^cresc." c2 =d e d c | (cG) G2 G A | B2 A G F2 | F2 G A F G | %14
w: li- * e En gar-|dant la rai- son!|Rire, é- tant si char-|man- * te, C'est cou-|pable à cô- té|Des rê- ve qu'on aug-|
 (GA) A2 B c | F2 B G A2- | A z z2 z2 |!p! F2 G F E F | (GF) E G F2 | A2 B B c2 | F2 G F E F | %21
w: men- * te Par son|trop de beau- té!|_|U- ne cho- se peut-|ê- * tre Qui va|vous é- ton- ner|C'est qu'à vo- tre fe-|
 (GF) E G F2 | A2 B B c2 | (c2 =d) e d c | (cG) G2 (G A) | B2 A G F2 | F2 G A F G | %27
w: nê- * tre Le vent|vient fris- son- ner|Qu'a- vril com mence à|lui- * re Que la|mer s'a- pla- nit|Et que ce- la veut|
 (GA)!<(! B c c2-!<)! | c!>(! (.F .B .G .A2-)!>)! | A z z2 z2 | z6 | z6 | z6 || (G2 A) G c A | %34
w: di- * re Fau- vet-|* te, fais ton nid!|_||||Belle aux chan- sons na-|
 (F2 F) (^D E) F | ^D E F4 |!<(! A2 A B A B!<)! | (Bc) c!>(! ^d c d | ^d G!>)! G2 z2 | %39
w: ï- ves, J'ad- mets peu|qu'on ait droit|Aux pru- nel- les très|vi- * ves Ay- ant le|coeur très froid|
"^rit." (B2 c) B e c | A2 A G A c | A F G4 | z!p! (E ^D) E F G |!>(! G2 F!>)! (E F) G | %44
w: Quand on est si bien|fai- te On de- vrait|se ca- cher,|Un am- ant qu'on re-|gret- te A quoi bon|
 E ^D C2- C z | B A =G2 !>!B A | (A2 D3)!>(! B!>)! | A B A C C2 | z!>(! c B c B A!>)! | %49
w: l'é- bau- cher? _|On se lasse, ô co-|quet- te D'ê-|tre tou- jours trem- blant|Vous ê- tes la ra-|
 G F E F E D | C2- C z z2 ||"^più forte" F2 G F E F | G F (EG) F2 | A2 B B c2 | F2 G F E F | %55
w: quette et je suis le vo-|lant! _|Le coq bat- tant de|l'ai- le, maî- tre en|son pa- cha- lick|Nous pré- vient qu'un- e|
 (GF) E G F2 | A2 B B c2 | c2 d e d c | (cG) G2 G A | B2 A G F2 | F2"^rit." G A F G | %61
w: bel- * le Est un|dan- ger pu- blic!|Il a rai- son j'es-|ti- * me Qu'en leur|gloire i- so- lés|Deux beaux yeux sont un|
 (GA) A2!>(! B c!>)! | F2!>(! B G A2-!>)! | A z z2 z2 | z6 | z6 | z6 ||"^più"!f! G2 A G c A | %68
w: cri- * me, Al- lu-|mez, mais brû- lez!|_||||Crain- dre ceux qu'on cap-|
 F2 F (^D E F | ^D E F4) |"^cresc." (A2 A) B A B | (Bc) c ^d B d | ^d G G2 z ^A | %73
w: ti- ve, Nous fuir et|nous li- er,|Ê- tre la sen- si-|ti- * ve Et la man-|ce- nil- lier, C'est|
!f!!<(! B2-!<)! B/ z/ (B"^rit." e) c | A2 A G A z | c-c/ z/ A F G2 | z (E ^D) E F G | %77
w: trop!... * ai- mez, ma-|da- me, Quoi donc?...|Quoi! * mon sou- hait,|Où j'ai tout mis mon|
!>(! (GF)!>)! E G!>(! (GF)!>)! | E F G2- G G |!p! A c c3 F |!<(! A c e e ^d2!<)! | G G c3 A | %82
w: â- * me, Mes rê- *|ves, me hait!... * L'a-|mour nous vi- se;|Cer- tes notre ef- froi|peut cri- er, Mais|
 F3 ^D F F | A2 c c B B | B E E z"^pressez" ^D F | (FE) (!>!A3 (=G/)F/) | F E (B A) =G2 | %87
w: rien ne dé- con-|cer- te Cet ar- ba-|lé- tri- er Sa- chez|donc, _ ô re- *|bel- le, Que sou- vent|
 F E A2"^rall." ^G B | (BA) (!>!=d3 (B/)A/) | A2 =G"^dim." G!>(! F F!>)! | F ^E C2- C z || %91
w: trop vain- queur, Le re-|gard- * d'u- ne- *|bel- le Ri- co- che|sur son coeur!... _|
"^a Tempo" F2 G F E F | (GF) E G F2 | A2 B B c2 | F2 G F E F | (GF) E G F2 | A2 B B c2 | %97
w: Vous pou- vez ê- tre|sû- * re Qu'un jour|vous vous fe- rez|Vous même u- ne bles-|su- * re Que vous|a- do- re- rez|
 c2 =d e d c | (cG) G A B2- | B B A G F2 |!pp! (F2 G) A F G | (GA) B c c2- | c F B G A2- | %103
w: Vous con- naî- trez l'ex-|ta- * se Voi- si-|* ne du pé- ché|Et que l'âme est un|va- * se Tou- jours|_ un peu pen- ché!|
 A z z2 z2 | z6 | z6 | z6 ||[K:C]"^Appassionato" (c c c2 A F | e2 d2- d/) z/ d | (c A F e d e | %110
w: _||||Vous sau- rez, at- ten-|dri- e, _ Le|char- me de l'ins- tant ter-|
 d3 c A f | f4) A2 | (^f2 .A) .A .A .A | A4- A z | (A A) A2 ^F D | ^c2 B3 (B | A ^F D ^c B c | %117
w: ri- bleoù l'on s'é-|cri- e|Ah! vous m'en di- rez|tant!... _|Vous sau- rez, vous qu'on|gâ- te Le|des- tin tel qu'il est, Les|
 B A2) ^F2 d | (d4 ^F2) |!>(! ^d ^F F2 F F!>)! | ^F4- F z |"^cresc. sempre" ^F F F2 ^D A | %122
w: pleurs, l'ombre et la|hâ- te|De ca- cher un bil-|let! _|Oui, pour- quoi tant re-|
 (A2 ^F2) G A | G E =F _B B-B/ z/ | _A A A2 F _c | (B2 ^G2) A B | A ^F G c c-c/ z/ | %127
w: met- * tre? Vous|sen- ti- rez, qui sait? *|La dou- ceur d'u- ne|let- * tre Qui|tié- dit le cor- set _|
 z2!ff!"^cresc. sempre" e e e2- | e-e/ z/ !fermata!z2!<(! G G!<)! | _B2- B-B/ z/ z G | %130
w: Vous ri- ez!|_ _ Vo- tre|joie _ _ A|
 _B2- B G G G | _B2- B z z2 | z2 z2"^express." (e2 | e6 | e2 e2 e2 | d6) | ^c2- c-c/ z/ z2 | %137
w: tout _ pré- fè- re|rien... _|En|vain|l'au- be rou-|geoi-|e _ _|
 z2 z!f! (!>!^e3 | !>!^e3) !>!e3 | !>!^d6 | ^c2- c-c/ z/ z2 | z2 z A ^f2- | f6 | %143
w: En|vain l'air|chan-|te! _ _|Eh bien!|_|
 z!f! (.d .A) .^F !tenuto!.B2- | B-B/ z/ z2!p! A2 | ^G6- | G4- G z | z6 | z6 ||[K:A] z6 | z6 || %151
w: Je ris aus- si!|_ _ tout|pas-|* se!|||||
 z2 z2"^tristement" (=D2 | E4) E2 | z2 z (C C) E | ^D6 | z2 (=D2 D2) | D6- | %157
w: Ô|Mu- se!|Al- lons nous-|en!|J'a- per-|çois|
"^sans ralentir" (D2 D2) D2 | D4 D2 | z2 (C2 C2-) | C3 C C C | C6- | C6 || %163
w: _ l'hum- ble|grâ- ce|D'un toit|_ de pa- y-|san!|_|
!pp!"^Moderato" (F2 G) F E F | (((GF))) E G F2 | A2 B B c2 | (F2 G) F E F | G F E G (F2 | %168
w: L'ar- bre, li- bre vo-|liè- * re, Est plein|d'heu- reu- ses voix,|Dans les pous- ses de|liè- re Le che- vreau|
 ((A2) B) B c2) | (c2 =d e) d c | (cG) G2 (G A) | B2 A G F2 | (F2 ^G) A F G | A2 =c2 F2- | %174
w: fait _ son choix|Et, jou- ant sous les|treil- * les, Un pe-|tit vil- la- geois|A pour pen- dants d'o-|reil- * les|
 F z (^G2 ^A2) | ^D2"^rit." G2 ^E2 | F6- | F z z2 z2 | z6 | z6 | z6 | z6 | z6 | z6 | z6 | z6 | z6 | %187
w: _ Deux ce-|ri- ses des|bois!|_||||||||||
 z6 |] %188
w: |

